X:182 
T:Rocky Road to Dublin, The  
B:CRE3.058 (BÃÂÃÂÃÂÃÂ³thar Carrach go Baile ÃÂÃÂÃÂÃÂtha Cliath)
F:file ID: cre.3/182rocky_r
R:slip jig
Q:160
M:9/8
L:1/8
K:G
"A dorian"
AB2c||ege d2B A2G|E2A A3 B2d|ege d2B A2c|B2G G2G B2d|
"5"ege d2B A2G|E2A A3 B2d|efg fga g2e|d2B G2A B2 d||
"9"e2a a2f g3|e2a a2d Bcd|e2a a2f  g2e|d2B G2A Bcd|
"13"e2a a2f g3|e2a a2f g2a|bag a2f g2e|d2B G2A Bcd||
"17"gfe d2B c2A|e2A c2A Bcd|ege d2B c2A|B2G G2G B2d|
"21"gfe d2B c2A|e2A c2A Bcd|efg fga g2e|d2B G2A Bcd||

%%%

